24x24/status/audio-volume-muted-blocking-panel.svg

<svg width="24" height="24" enable-background="new" version="1.1" xmlns="http://www.w3.org/2000/svg">
 <title>Paper Symbolic Icon Theme</title>
 <path d="m16.738 5.2902c-0.37563 0.026826-0.62454 0.48828-0.2832 0.86914 1.6202 1.5104 2.5416 3.6249 2.5449 5.8398-0.0026 2.2205-0.92792 4.3401-2.5547 5.8516-0.44531 0.47165 0.18064 1.1484 0.67774 0.72852 1.8304-1.6992 2.8725-4.0825 2.877-6.5801-0.0026-2.4925-1.0386-4.8722-2.8613-6.5723-0.13636-0.10693-0.27518-0.14566-0.40039-0.13672zm-2.3906 1.416c-0.39562 0.01189-0.64227 0.53363-0.25586 0.91406 1.2147 1.1326 1.9056 2.7181 1.9082 4.3789-0.0019 1.6654-0.69596 3.2551-1.916 4.3887-0.46835 0.44623 0.17346 1.1467 0.67969 0.72852 1.423-1.3216 2.233-3.1751 2.2363-5.1172-0.0019-1.9383-0.8074-3.789-2.2246-5.1113-0.14685-0.13372-0.29586-0.1856-0.42774-0.18164zm-4.3477 0.29297-3 3h-2c-0.554 0-1 0.446-1 1v2c0 0.554 0.446 1 1 1h2l3 3zm2.0176 1.1836c-0.37603 0.01638-0.64465 0.51365-0.29102 0.89648 0.81045 0.75501 1.2715 1.8123 1.2734 2.9199-0.0013 1.1103-0.464 2.1701-1.2773 2.9258-0.47259 0.42993 0.13957 1.1522 0.67969 0.73047 1.0168-0.94425 1.5955-2.2686 1.5977-3.6562-0.0017-1.3844-0.57742-2.7062-1.5898-3.6504-0.13024-0.12342-0.26724-0.17148-0.39258-0.16602z" fill="#ffffff" fill-rule="evenodd" opacity=".5" style="paint-order:normal"/>
</svg>

<svg height="24" width="24" xmlns="http://www.w3.org/2000/svg">
    <path d="M16.738 5.29c-.376.027-.625.488-.283.87A8 8 0 0 1 19 12a8 8 0 0 1-2.555 5.85c-.445.472.18 1.15.678.73A9 9 0 0 0 20 12a9 9 0 0 0-2.862-6.573.579.579 0 0 0-.4-.137zm-2.39 1.416c-.396.012-.643.534-.256.914A6 6 0 0 1 16 12a6 6 0 0 1-1.916 4.388c-.469.446.173 1.147.68.728A7 7 0 0 0 17 12a7 7 0 0 0-2.225-5.111c-.147-.134-.296-.186-.428-.182zM10 7l-3 3H5c-.554 0-1 .446-1 1v2c0 .554.446 1 1 1h2l3 3zm2.017 1.184c-.376.016-.644.513-.29.896A4 4 0 0 1 13 12a4 4 0 0 1-1.278 2.926c-.472.43.14 1.152.68.73A5 5 0 0 0 14 12a5 5 0 0 0-1.59-3.65.536.536 0 0 0-.393-.166z" fill="#f4f4f7" fill-rule="evenodd" opacity=".5"/>
</svg>
